wp-content/themes/blackfoot/assets/img/icon-stat-style.svg

<?xml version="1.0" encoding="UTF-8" standalone="no"?>
<svg width="36px" height="36px" viewBox="0 0 36 36" version="1.1" xmlns="http://www.w3.org/2000/svg" xmlns:xlink="http://www.w3.org/1999/xlink" xmlns:sketch="http://www.bohemiancoding.com/sketch/ns">
    <!-- Generator: Sketch 3.3.1 (12002) - http://www.bohemiancoding.com/sketch -->
    <title>Oval 7 Copy 5 + Imported Layers</title>
    <desc>Created with Sketch.</desc>
    <defs></defs>
    <g id="Water" stroke="none" stroke-width="1" fill="none" fill-rule="evenodd" sketch:type="MSPage">
        <g sketch:type="MSArtboardGroup" transform="translate(-413.000000, -1781.000000)" id="THE-STATS">
            <g sketch:type="MSLayerGroup" transform="translate(413.000000, 1148.000000)">
                <g id="Oval-7-Copy-5-+-Imported-Layers" transform="translate(0.000000, 633.000000)" sketch:type="MSShapeGroup">
                    <circle id="Oval-7-Copy-5" fill="#999490" cx="18" cy="18" r="18"></circle>
                    <path d="M27.9558941,17.0416574 C27.8932275,16.984324 26.3713608,15.643524 23.1766941,16.3696574 C20.9068275,16.884324 19.6494941,17.1301907 18.5100275,17.043524 C18.8017608,16.9864574 19.1017608,16.9248574 19.3974941,16.8645907 C20.3204275,16.6760574 21.1924275,16.4968574 21.6516275,16.4728574 C22.7745608,16.4144574 24.4558941,15.7832574 24.7838941,15.6269907 C24.9569608,15.5445907 25.1892275,15.5165907 25.3590941,15.4957907 C25.5516275,15.4728574 25.6580275,15.4592574 25.7046941,15.3685907 C25.7340275,15.3133907 25.7361608,15.2477907 25.7100275,15.184324 C25.6494941,15.0373907 25.4433608,14.905124 25.0953608,14.791524 C24.5590941,14.6176574 23.1265608,14.925924 21.3100275,15.3477907 C20.5694941,15.5197907 19.9276275,15.7197907 19.3630941,15.8968574 C18.5932275,16.1373907 17.9860275,16.3269907 17.4974941,16.329124 C17.0684275,16.3312574 15.8329608,16.443524 14.6444275,16.560324 C14.3809608,16.5624574 14.1276275,16.5696574 13.8924275,16.5789907 L17.1038941,14.363524 C17.1924275,14.301924 17.2150941,14.1821907 17.1558941,14.0925907 C17.0964275,14.0040574 16.9766941,13.977924 16.8860275,14.0352574 L15.4172275,14.973924 L18.2454941,12.5989907 C18.3276275,12.5301907 18.3390941,12.4061907 18.2705608,12.3237907 C18.2246941,12.2685907 18.1537608,12.2445907 18.0881608,12.2549907 L18.2505608,12.108324 C18.3297608,12.036324 18.3372275,11.912324 18.2652275,11.832324 C18.1932275,11.7520574 18.0705608,11.7445907 17.9892275,11.815524 L17.5705608,12.1821907 C17.5892275,12.1176574 17.5734941,12.0445907 17.5246941,11.9925907 C17.4505608,11.915524 17.3286941,11.9101907 17.2494941,11.9832574 L13.1494941,15.736324 L15.6182941,11.5560574 C15.6734941,11.463524 15.6433608,11.3437907 15.5505608,11.288324 C15.4590941,11.233124 15.3390941,11.2613907 15.2817608,11.353124 L13.2046941,14.688324 L14.6286941,11.2800574 C14.6705608,11.181124 14.6246941,11.0664574 14.5257608,11.0237907 C14.4276275,10.981124 14.3132275,11.0248574 14.2684275,11.122724 C14.1297608,11.429124 13.9809608,11.7581907 13.8257608,12.097924 C14.0684275,11.4581907 14.3078941,10.829124 14.5225608,10.2656574 C14.5609608,10.1656574 14.5110941,10.0520574 14.4110941,10.0133907 C14.3121608,9.97499069 14.1974941,10.0216574 14.1569608,10.1216574 C14.1516275,10.133124 14.0494941,10.387524 13.8860275,10.7893907 C13.9340275,10.643524 13.9620275,10.5581907 13.9641608,10.5520574 C13.9974941,10.449924 13.9433608,10.3405907 13.8422941,10.305124 C13.7412275,10.2696574 13.6308275,10.3216574 13.5932275,10.4216574 C13.5380275,10.5696574 12.6412275,12.9853907 11.9809608,14.8144574 C12.2236275,12.9352574 12.5236275,10.453124 12.5412275,10.3008574 C12.5537608,10.1957907 12.4798941,10.0989907 12.3745608,10.0832574 C12.2705608,10.0685907 12.1705608,10.139524 12.1526941,10.2445907 L12.1265608,10.3957907 C12.1057608,10.3216574 12.0433608,10.2624574 11.9609608,10.253124 C11.8558941,10.239524 11.7569608,10.3144574 11.7422941,10.4208574 C11.7401608,10.4373907 11.6641608,10.9853907 11.5580275,11.7541907 C11.5265608,11.7216574 11.4838941,11.6997907 11.4350941,11.6957907 C11.3308275,11.687524 11.2350941,11.7624574 11.2225608,11.867524 L11.0641608,13.187524 C11.0809608,11.8832574 11.0942941,10.733124 11.0942941,10.7133907 C11.0942941,10.605124 11.0068275,10.5165907 10.8985608,10.5165907 C10.7942941,10.5165907 10.7476275,10.5165907 10.7172275,10.712324 L10.7017608,10.712324 C10.7017608,10.718724 10.7006941,10.7749907 10.6996275,10.8717907 C10.6849608,11.042724 10.6734941,11.2936574 10.6569608,11.6664574 L10.5236275,14.5853907 C10.4465608,13.9717907 10.3798941,13.4509907 10.3694941,13.3613907 C10.3694941,13.357124 10.3684275,13.3541907 10.3673608,13.3509907 L10.3673608,13.349924 L10.3684275,13.349924 C10.3548275,13.2520574 10.2713608,13.1760574 10.1734941,13.1760574 C10.1172275,13.1760574 10.0630941,13.1997907 10.0265608,13.242724 C9.9913608,13.2821907 9.97562747,13.3477907 9.97989413,13.401924 L9.97989413,13.4061907 C9.9881608,13.4989907 10.0236275,14.043524 10.0630941,14.6800574 C9.86309413,13.832324 9.7505608,13.3624574 9.6745608,13.101924 C9.65989413,13.0237907 9.6505608,12.970724 9.6465608,12.9488574 L9.6257608,12.9520574 C9.56202747,12.7789907 9.52149413,12.7789907 9.45162747,12.7789907 C9.39322747,12.7789907 9.33802747,12.805124 9.30069413,12.849924 C9.26309413,12.894724 9.24949413,12.963524 9.25989413,13.0216574 C9.29322747,13.2061907 9.7161608,15.4645907 9.92869413,16.6029907 C9.66309413,16.6341907 9.3609608,16.7269907 9.12042747,16.9904574 L9.0641608,17.0509907 C9.03722747,17.0789907 9.0121608,17.1072574 8.98709413,17.1352574 C8.98389413,17.1352574 8.98202747,17.133124 8.97882747,17.1341907 C8.92042747,17.133124 8.85989413,17.122724 8.7953608,17.1101907 C8.69429413,17.0904574 8.57989413,17.0685907 8.4537608,17.0925907 C8.27882747,17.1269907 8.08709413,17.297924 8.02762747,17.473924 C7.98922747,17.588324 7.98282747,17.8456574 8.0609608,17.9717907 C8.15482747,18.125924 8.34842747,18.2093907 8.4985608,18.2341907 C8.50469413,18.236324 8.5777608,18.2477907 8.6705608,18.2477907 C8.75482747,18.2477907 8.8569608,18.2373907 8.9401608,18.1989907 C8.95909413,18.229124 8.97562747,18.260324 8.99749413,18.287524 C9.1673608,18.4957907 9.41002747,18.5800574 9.6329608,18.6488574 C9.37349413,19.477924 9.00789413,20.629124 8.8817608,21.0029907 C8.8257608,21.1477907 8.80282747,21.208324 8.86202747,21.2957907 C8.8985608,21.3488574 8.95909413,21.381124 9.02362747,21.381124 L9.02469413,21.381124 C9.09029413,21.381124 9.15269413,21.3477907 9.1881608,21.2936574 C9.20469413,21.270724 9.2121608,21.2520574 9.2505608,21.1384574 C9.3569608,20.8624574 9.6257608,20.1925907 9.8913608,19.5352574 C9.73402747,20.4144574 9.54229413,21.4717907 9.38922747,22.312324 C9.3705608,22.4176574 9.43722747,22.5176574 9.54122747,22.539524 C9.64549413,22.5624574 9.74762747,22.4968574 9.77349413,22.3925907 L10.3713608,19.901924 C10.3516275,20.6384574 10.3340275,21.3040574 10.3340275,21.3248574 C10.3340275,21.3768574 10.3548275,21.4269907 10.3913608,21.463524 C10.4276275,21.4997907 10.4777608,21.5208574 10.5297608,21.5208574 L10.5297608,21.5208574 C10.6132275,21.5208574 10.6580275,21.5197907 10.7046941,21.3248574 L10.7257608,21.3248574 C10.7257608,21.3176574 10.7265608,21.277124 10.7286941,21.212324 C10.7756275,20.9645907 10.8308275,20.5144574 10.9308275,19.7008574 L10.9788275,19.3133907 L11.7182941,23.2749907 C11.7361608,23.3696574 11.8182941,23.4352574 11.9110941,23.4352574 C11.9214941,23.4352574 11.9318941,23.4341907 11.9433608,23.432324 C12.0486941,23.4144574 12.1204275,23.3165907 12.1057608,23.2104574 C12.0630941,22.9112574 11.8297608,21.2560574 11.6329608,19.8832574 C11.9849608,20.8373907 12.3537608,21.8312574 12.3828275,21.9093907 C12.4193608,22.008324 12.5286941,22.0592574 12.6286941,22.0269907 C12.7286941,21.9936574 12.7849608,21.8864574 12.7548275,21.784324 L12.0100275,19.277924 L14.1809608,22.332324 C14.2433608,22.418724 14.3630941,22.4405907 14.4516275,22.381124 C14.5401608,22.3208574 14.5641608,22.2008574 14.5057608,22.1112574 L12.7494941,19.418724 L14.2068275,20.8061907 C14.2838941,20.8789907 14.4057608,20.877924 14.4809608,20.8029907 C14.5444275,20.739524 14.5558941,20.643524 14.5142941,20.567524 L15.4724275,21.3925907 C15.5537608,21.4624574 15.6766941,21.4549907 15.7476275,21.3749907 C15.8193608,21.294724 15.8121608,21.1728574 15.7340275,21.0997907 C15.6777608,21.0488574 15.0297608,20.4541907 14.3161608,19.8029907 C15.0236275,20.263524 15.6433608,20.6645907 15.6996275,20.7008574 C15.7892275,20.7581907 15.9078941,20.7352574 15.9684275,20.6477907 C16.0286941,20.560324 16.0089608,20.4416574 15.9236275,20.377924 C15.8630941,20.3341907 15.0068275,19.7029907 14.2078941,19.125924 C14.4569608,19.2165907 14.6412275,19.2832574 14.6620275,19.2904574 C14.7558941,19.322724 14.8620275,19.2821907 14.9057608,19.1904574 C14.9494941,19.0989907 14.9172275,18.9893907 14.8308275,18.9384574 L14.7182941,18.8696574 C14.9028275,18.842724 15.0609608,18.7864574 15.2214941,18.725924 C15.4078941,18.6560574 15.5204275,18.5664574 15.6401608,18.4717907 C15.6724275,18.4456574 15.7068275,18.4197907 15.7422941,18.3925907 C15.8038941,18.3456574 15.8486941,18.288324 15.8817608,18.2269907 L21.2558941,18.3437907 C21.2580275,18.3437907 21.2924275,18.3416574 21.3516275,18.3416574 C21.8350941,18.3416574 24.2537608,18.4645907 24.4286941,20.8821907 C24.4777608,21.5488574 24.3132275,22.0893907 23.9422941,22.488324 C23.2652275,23.215524 22.0694941,23.3112574 21.5412275,23.3165907 L21.9641608,22.8144574 C22.0057608,22.7656574 22.0057608,22.6936574 21.9641608,22.6445907 C21.9225608,22.5968574 21.8516275,22.584324 21.7964275,22.6176574 C21.7892275,22.6216574 21.0817608,23.0456574 20.3153608,23.218724 C19.4078941,23.422724 18.3756275,23.4997907 18.3110941,23.5008574 C18.2422941,23.5008574 18.1838941,23.5549907 18.1798941,23.6237907 C18.1756275,23.6925907 18.2265608,23.753124 18.2953608,23.7613907 C18.3214941,23.7645907 20.8705608,24.0581907 22.0881608,24.0581907 C22.1652275,24.0581907 22.2361608,24.057124 22.3017608,24.0549907 C23.4817608,24.0112574 25.2297608,23.033124 25.2297608,21.0749907 C25.2297608,20.429124 25.0465608,18.2789907 22.6913608,17.7280574 C22.4038941,17.660324 21.9630941,17.6029907 21.4246941,17.553124 C23.1902941,17.2144574 24.3548275,17.1549907 25.5078941,17.1760574 C26.7942941,17.1997907 27.8516275,17.2717907 27.8620275,17.2728574 C27.9225608,17.277124 27.9694941,17.2445907 27.9913608,17.1936574 C28.0100275,17.1384574 27.9964275,17.0789907 27.9558941,17.0416574 L27.9558941,17.0416574 Z" id="Imported-Layers" fill="#FFFFFF"></path>
                </g>
            </g>
        </g>
    </g>
</svg>

<svg xmlns="http://www.w3.org/2000/svg" width="36" height="36"><title>Oval 7 Copy 5 + Imported Layers</title><desc>Created with Sketch.</desc><g fill="none"><g><g transform="translate(0 0)"><circle cx="18" cy="18" r="18" fill="#999490"/><path fill="#fff" d="M27.96 17.04c-.07-.06-1.6-1.4-4.78-.67-2.27.5-3.53.76-4.67.67.3-.05.6-.12.9-.18.92-.18 1.8-.36 2.25-.4 1.12-.05 2.8-.68 3.13-.83.18-.1.4-.1.58-.13.2-.03.3-.04.34-.13.03-.06.04-.12 0-.2-.05-.13-.26-.26-.6-.38-.54-.18-1.97.13-3.8.55-.73.17-1.37.37-1.94.55-.77.24-1.37.43-1.86.43-.43 0-1.67.1-2.86.23-.26 0-.5 0-.75.02l3.2-2.22c.1-.06.12-.18.06-.27-.06-.1-.18-.12-.27-.06l-1.48.93 2.83-2.37c.08-.07.1-.2.02-.28-.05-.05-.12-.08-.18-.07l.15-.14c.08-.06.1-.2.02-.27-.08-.08-.2-.1-.28 0l-.43.35c.02-.06 0-.14-.05-.2-.07-.06-.2-.07-.27 0l-4.1 3.76 2.47-4.18c.05-.1.02-.22-.07-.27-.1-.07-.2-.04-.27.05L13.2 14.7l1.43-3.42c.04-.1 0-.2-.1-.26-.1-.04-.22 0-.26.1-.14.3-.3.64-.44.98.24-.64.48-1.27.7-1.83.03-.1-.02-.22-.12-.26-.1-.03-.2.02-.24.12 0 0-.1.27-.27.67.03-.16.06-.24.06-.25.04-.1-.02-.2-.12-.24-.1-.03-.2.02-.25.12-.06.15-.96 2.57-1.62 4.4.24-1.88.54-4.37.56-4.52 0-.1-.06-.2-.17-.22-.1 0-.2.06-.22.16l-.02.16c-.02-.08-.1-.14-.17-.15-.1 0-.2.06-.22.17 0 .02-.08.57-.18 1.33-.03-.03-.08-.05-.12-.05-.1 0-.2.06-.22.17l-.16 1.32c.02-1.32.03-2.47.03-2.5 0-.1-.1-.18-.2-.18s-.15 0-.18.2h-.02s0 .05 0 .15c-.02.17-.03.42-.04.8l-.14 2.92c-.07-.63-.14-1.15-.15-1.24-.02-.1-.1-.18-.2-.18-.05 0-.1.02-.14.06-.04.04-.05.1-.05.16 0 .1.04.64.08 1.28-.2-.85-.3-1.32-.4-1.58 0-.08 0-.13 0-.15h-.03c-.07-.17-.1-.17-.18-.17-.06 0-.1.03-.15.07-.04.04-.05.1-.04.17.03.2.46 2.44.67 3.58-.27.03-.57.13-.8.4l-.07.05c-.02.03-.05.06-.07.1-.02 0-.02-.02-.02-.02-.06 0-.12 0-.18-.02-.1 0-.22-.03-.35 0-.17.03-.36.2-.42.37-.04.12-.05.38.03.5.1.16.3.24.44.26 0 0 .08.02.17.02.08 0 .2 0 .27-.05.02.03.04.06.06.1.17.2.4.28.63.35-.26.83-.62 1.98-.75 2.35-.05.15-.08.2-.02.3.04.05.1.08.16.08.07 0 .13-.03.17-.1 0 0 0-.03.05-.14.1-.28.38-.95.64-1.6-.17.87-.36 1.93-.5 2.77-.03.12.04.22.14.24.1.02.2-.04.23-.15l.6-2.5c-.02.74-.04 1.4-.04 1.42 0 .06.02.1.06.14.03.04.08.06.13.06.08 0 .13 0 .17-.2h.03s0-.04 0-.1c.05-.26.1-.7.2-1.52l.05-.4.74 3.97c.02.1.1.17.2.17 0 0 0 0 .02 0 .1-.03.18-.12.17-.23-.04-.3-.27-1.94-.47-3.32.35.96.72 1.95.75 2.03.04.1.15.16.25.13.1-.04.15-.14.12-.25l-.74-2.5 2.18 3.05c.06.1.18.1.27.05.1-.06.1-.18.06-.27l-1.75-2.68 1.46 1.4c.08.06.2.06.28-.02.06-.06.08-.16.03-.23l.97.82c.08.06.2.05.28-.03.07-.08.06-.2-.02-.27-.05-.05-.7-.65-1.4-1.3.7.46 1.3.86 1.37.9.1.06.2.04.27-.05.06-.1.04-.2-.05-.27-.06-.05-.9-.68-1.7-1.25.24.1.42.15.44.16.1.02.2-.02.25-.1.05-.1.02-.2-.07-.26l-.1-.07c.17-.03.33-.08.5-.14.18-.07.3-.16.4-.26.04-.02.08-.05.1-.08.07-.05.12-.1.15-.17l5.38.1s.03 0 .1 0c.48 0 2.9.13 3.07 2.55.05.67-.12 1.2-.5 1.6-.66.74-1.86.83-2.4.84l.43-.5c.05-.05.05-.13 0-.18-.04-.04-.1-.06-.16-.02 0 0-.72.43-1.48.6-.9.2-1.94.28-2 .28-.08 0-.14.05-.14.12 0 .07.05.13.12.14.02 0 2.57.3 3.8.3.07 0 .14 0 .2 0 1.18-.05 2.93-1.03 2.93-3 0-.63-.18-2.78-2.54-3.33-.3-.07-.74-.13-1.28-.18 1.77-.34 2.93-.4 4.1-.37 1.27.02 2.33.1 2.34.1.06 0 .1-.04.13-.1 0-.04 0-.1-.04-.14z"/></g></g></g></svg>
